X:1
T: The Ladies' Pandeletts
C:
R:Reel
Q: 232
K:Gm
M:4/4
L:1/8
|:Bd cA G2 GB|AF cF dF cF|Bd cA G2 ag|fd cA AG G2|
Bd cA G2 GB|AF cF dF cF|Bd cA G2 ag|fd cA BG G2:|
|:a2 af g2 fg|a2 ag fd de|fg af g2 ag|fd cA AG G2|
a2 af g2 fg|a2 ag fd de|fg af ga bg|fd cA AG G2:|
